X:1
T:Trio No. 10
T:Trio No. 10
T:Trios No. 10 & 9
T:from" 10 Trios for Organ" Op. 49 arr. for Flute, Violin and Cello 
T:Josef Gabriel  Rheinberger (1839-1901)
T:Arrangement by Felix Scharpf
T:twoflutes 2019 / Felix Scharpf / https://commons.wikimedia.org/wiki/File:Rheinberger.jpg
T:twoflutes 2019 / Felix Scharpf / https://commons.wikimedia.org/wiki/File:Rheinberger.jpg
T:twoflutes 2019 / Felix Scharpf / https://commons.wikimedia.org/wiki/File:Rheinberger.jpg
T:twoflutes 2019 / Felix Scharpf / https://commons.wikimedia.org/wiki/File:Rheinberger.jpg
T:twoflutes 2019 / Felix Scharpf / https://commons.wikimedia.org/wiki/File:Rheinberger.jpg
C:Josef Rheinberger (1839-1901)
Z:twoflutes 2019 / Felix Scharpf / https://commons.wikimedia.org/wiki/File:Rheinberger.jpg
%%score [ 1 2 3 ]
L:1/8
Q:1/4=92
M:3/4
K:G
V:1 treble nm="Flute" snm="Fl."
V:2 treble nm="Violin" snm="Vl."
V:3 bass nm="Cello" snm="Vc."
V:1
"^Trio No. X Andante molto" z!mf! (gfeBc | d3 c/B/ AG | FBAdcB/A/ | G3) (GAB | C3) (ABc | %5
 ^D3) (fg^d | eBGe/d/^ce | a2 d2) z2 | z (gfeBc | d3 c/B/ AG | FBAdcB/A/ | G3) (ge^c | ^A3 fd^A | %13
 B3) (b- bg/e/ | ^c3 afc) | (d3 ^c/B/ A2- | AGFA c2) | (FG/A/ B3 A | ^GFEBed | ^cB/c/A)(eag | %20
 fe/f/d)(ad'c' | bfg^deB | c^G A2) z (e | FGABcd | GA B2) z (a | Bcde=fg | cd e2) z!mp! (^G | %27
"_dim." A=fe) z z (_e | dFG) z z (c | %29
[Q:1/4=80]"_rit." B[Q:1/4=74]A/G/[Q:1/4=65] A4[Q:1/4=55][Q:1/4=45] | !fermata!G6) |] %31
[M:4/4]"^Trio No. IX Moderato"[Q:1/4=102] z2!mf! (b2 a2 B2 | c2) (de =fefg | e2) (ge A2 ce | %34
 =f2) (af B2 df | ^g2) (b2 c'2 ^d2 | e2) (^g2 a2 B2 | c2) (de =fefg | e2) (ga _babc' | %39
 a2) (c'2 d'2 e2 | =f2 ga _bd^cg | =f2) (d'2 _e'2 ^f2 | g2 _ba g=fed | c2) (e'2 =f'2 ^g2 | %44
 a2 c'b a^ga=f | e2)!>(! (^g2 a2 ^d2 | e2) (^g2 a2 ^d2 | e2) (^g2 a2 B2!>)! | %48
!p! c2)!mf! (de =fefg | e2) ((ge A2 ce | =f2)) (af d'2 ac' | b2) (c'^g a2 e=g | =f2) (b^f g2 d=f | %53
 e2) (ae =f2 Ad | c2) (dA c2 B2 | c2) (g2 a2 B2 | c2)!mp! (de =fefg | e2)!>(! (dc d2 E2 | %58
[Q:1/4=85] =F3[Q:1/4=80] G[Q:1/4=75] _AG[Q:1/4=65]A[Q:1/4=50]_B |!pp! !fermata!G8)!>)! |] %60
V:2
 z2 z!mf! (gfe | Bc d3 c/B/ | AGFBAd | cB/A/ G3) (G | AB C3) (A | Bc ^D3) (f | g^deBGe/=d/ | %7
 ^ce a2 d2) | z2 z (gfe | Bc d3 c/B/ | AGFBAd | cB/A/ G3) (g | e^c ^A3 f | d^A B3) (b- | %14
 bg/e/ ^c3 a | f^c) (d3 c/B/ | A3 GFA | c2) (FG/A/ B2- | BA^GFEB | ed^cB/c/A)(e | agfe/f/d)(a | %21
 d'c'bfg^d | eBc^G A2) | z (eFGAB | cdGA B2) | z (aBcde | =fgcd e2) | z!mp! (^G"_dim."A=fe) z | %28
 z (_edF G2- | G3 F/E/ F[C-F] | [CD]2 !fermata!B,4) |][M:4/4] z!mp! (e2 G F_ed=F | EcBD CAGB, | %33
 CD E3) (G=FE | DE =F3 AGD | E)(ed^G ABcF | ^GABD- D)(E=F=G | Ec_BG ACDB, | C)(c_BF G3 A | %39
 =F) (A2 C B,_AG_B, | A,)(=FE_E DF=E)(^c | d_B=FD C)(Ac_e- | ed-dc _BAG=F | EcGE D)(Bd=f- | %44
 f e2 d) (cBcA | ^GeBd ^c=cFB | ^G)(E^D=D ^C=CB,A, | ^G,)(B,ED ^CDG=F | E)(cBD CAGB, | %49
 CD E3) (G=FE | DE =F3) (^FcA | G^D E3) (=F ^C2- | CD ^D3) (E B,2- | B,C ^C3) (DE=F- | %54
 F E2 =F D G2 F | E) (e2 G F_ed=F | Ec!mp!BD CAGB, | C)(A,!>(! _B,3 G,CB,- | B,A_AG =FE F2 | %59
!pp! !fermata!E8)!>)! |] %60
V:3
!mf! G,,6- | G,,4 B,,2 | D,6 | E,4 E,2 | A,4 F,2 | B,4 A,2 | G,4 (A,2- | A,G,F,CB,A,) | G,,6- | %9
 G,,4 B,,2 | D,6 | E,4 ^C,2 | F,4 F,2 | G,4 G,E, | A,4 A,2 | (B,3 A,/G,/ F,2- | F,^C, D,2) z D, | %17
 ^D,4- D,D, | E,4 ^G,,2 | (G,,3 G,F,E,) | (D,3 CB,A, | G,6) | C,4 C,2 | D,6 | (E,F, G,3 F, | %25
 G,4) (G,2 | A,B, C3 B, | C3)!mp! (B,"_dim."CA, | B,3 D E,_E, | D,4) D,,2 | !fermata!G,,6 |] %31
[M:4/4]!mp! C,8- | C,8- | C,6 A,,2 | D,6 B,,2 | E,8- | E,4 =F,2 G,2 | C,8- | C,2 C4 E,2 | =F,8- | %40
 F,2 =F,2 G,2 A,,2 | _B,,8- | B,,2 F,2 G,2 =B,,2 | C,8- | C,2 ^G,2 A,2 ^D,2 | E,8- | E,8- | %47
 E,2 E,2 =F,2 G,2 | C,8- | C,2 C4 A,2 | D6 F,2 | G,8- | G,6 ^G,2 | A,4 D,4 | G,6 G,,2 | C,8- | %56
 C,8- | C,8- |!>(! C,8- |!pp! !fermata!C,8!>)! |] %60

